!!!OTL: 180. Sher
!!!Genre:	Sher
!!!Mode:	Freygish
!!!Listening/dance:	dance
!!!:	*C:
!!!One_Mode:	no
**kern
*thru
*I"P1
*clefG2
*k[b-e-a-]
*C:
!LO:TX:a:i:t=C-major
8ccL
8dd
8ee
8ffJ
=18
8eeL
16ffL
16eeJ
8dd
8ccJ
=19
8ddL
16eeL
16ddJ
8cc
8bJ
=20
4cc
4g
=21
(8ccL
8dd)
8ee
8ffJ
=22
8eeL
16ffL
16eeJ
8dd
8ccJ
=23
8ggL
8gg
8ff#X
8aaJ
=24
4.gg
8g
=25
8ccL
8dd
8ee
8ffJ
=26
8eeL
16ffL
16eeJ
8dd
8ccJ
=27
8ddL
16eeL
16ddJ
8cc
8bXJ
=28
2cc
!!!End-Modulation
!!!Begin-Modulation
*-
